X: 29557
T: Noel McCarthy's
R: jig
M: 6/8
K: Adorian
AcA cAc|^ded a2g|eae ^d=dc|AGE c2c|
AAA Acd|^d=dc AGE|GAA Acd|^deg age|
dcA ADA|ADA c2A|GAA dAd|dcA AGE|
eee aea|eae c2A|^dee e^d=d|c3 cBA|
E2B B^AB|GEE B2^A|ddd A2A|~D3 c2A|
a2a age|e^d=d cdg|a2z c'2b-|b6:|

